icons/modern/black-flag.svg

<svg width="32" height="32" viewBox="0 0 32 32" fill="none" xmlns="http://www.w3.org/2000/svg">
<g filter="url(#filter0_i_4_7848)">
<path fill-rule="evenodd" clip-rule="evenodd" d="M7.22616 1.94975C7.75084 1.94975 8.17616 2.37508 8.17616 2.89975V28.7122C8.17616 29.2369 7.75084 29.6623 7.22616 29.6623C6.70149 29.6623 6.27617 29.2369 6.27617 28.7122V2.89975C6.27617 2.37508 6.70149 1.94975 7.22616 1.94975Z" fill="#9D9DA2"/>
<path fill-rule="evenodd" clip-rule="evenodd" d="M7.22616 1.94975C7.75084 1.94975 8.17616 2.37508 8.17616 2.89975V28.7122C8.17616 29.2369 7.75084 29.6623 7.22616 29.6623C6.70149 29.6623 6.27617 29.2369 6.27617 28.7122V2.89975C6.27617 2.37508 6.70149 1.94975 7.22616 1.94975Z" fill="url(#paint0_radial_4_7848)"/>
</g>
<g filter="url(#filter1_ii_4_7848)">
<path d="M9.45144 5.1185C8.42679 4.73754 7.47012 4.62196 6.85767 4.61858C6.51378 4.61669 6.27617 4.90651 6.27617 5.25041V17.4479C6.27617 17.7296 6.50934 17.9541 6.79095 17.96C9.1059 18.0089 9.63712 18.8685 12.2843 18.8685C15.1171 18.8685 18.2924 16.9622 21.0319 16.9622C22.889 16.9622 24.9071 17.6467 26.048 18.1598C26.2892 18.2683 26.573 18.0955 26.573 17.831V5.49353C26.573 5.20672 26.4086 4.94315 26.1479 4.82359C21.0507 2.48604 18.5478 4.05031 15.4284 4.931C13.4361 5.4935 11.6617 5.75912 9.45144 5.1185Z" fill="url(#paint1_radial_4_7848)"/>
</g>
<defs>
<filter id="filter0_i_4_7848" x="6.27617" y="1.44975" width="2.65" height="28.2125" filterUnits="userSpaceOnUse" color-interpolation-filters="sRGB">
<feFlood flood-opacity="0" result="BackgroundImageFix"/>
<feBlend mode="normal" in="SourceGraphic" in2="BackgroundImageFix" result="shape"/>
<feColorMatrix in="SourceAlpha" type="matrix" values="0 0 0 0 0 0 0 0 0 0 0 0 0 0 0 0 0 0 127 0" result="hardAlpha"/>
<feOffset dx="0.75" dy="-0.5"/>
<feGaussianBlur stdDeviation="0.375"/>
<feComposite in2="hardAlpha" operator="arithmetic" k2="-1" k3="1"/>
<feColorMatrix type="matrix" values="0 0 0 0 0.411765 0 0 0 0 0.415686 0 0 0 0 0.431373 0 0 0 1 0"/>
<feBlend mode="normal" in2="shape" result="effect1_innerShadow_4_7848"/>
</filter>
<filter id="filter1_ii_4_7848" x="6.02617" y="3.34703" width="20.5469" height="15.5215" filterUnits="userSpaceOnUse" color-interpolation-filters="sRGB">
<feFlood flood-opacity="0" result="BackgroundImageFix"/>
<feBlend mode="normal" in="SourceGraphic" in2="BackgroundImageFix" result="shape"/>
<feColorMatrix in="SourceAlpha" type="matrix" values="0 0 0 0 0 0 0 0 0 0 0 0 0 0 0 0 0 0 127 0" result="hardAlpha"/>
<feOffset dx="-0.25"/>
<feGaussianBlur stdDeviation="0.25"/>
<feComposite in2="hardAlpha" operator="arithmetic" k2="-1" k3="1"/>
<feColorMatrix type="matrix" values="0 0 0 0 0.298039 0 0 0 0 0.262745 0 0 0 0 0.337255 0 0 0 1 0"/>
<feBlend mode="normal" in2="shape" result="effect1_innerShadow_4_7848"/>
<feColorMatrix in="SourceAlpha" type="matrix" values="0 0 0 0 0 0 0 0 0 0 0 0 0 0 0 0 0 0 127 0" result="hardAlpha"/>
<feOffset dy="-0.25"/>
<feGaussianBlur stdDeviation="0.25"/>
<feComposite in2="hardAlpha" operator="arithmetic" k2="-1" k3="1"/>
<feColorMatrix type="matrix" values="0 0 0 0 0.235294 0 0 0 0 0.145098 0 0 0 0 0.32549 0 0 0 1 0"/>
<feBlend mode="normal" in2="effect1_innerShadow_4_7848" result="effect2_innerShadow_4_7848"/>
</filter>
<radialGradient id="paint0_radial_4_7848" cx="0" cy="0" r="1" gradientUnits="userSpaceOnUse" gradientTransform="translate(8.0204 2.3765) rotate(152.613) scale(1.18498 1.36575)">
<stop stop-color="#A9AAAD"/>
<stop offset="1" stop-color="#A9AAAD" stop-opacity="0"/>
</radialGradient>
<radialGradient id="paint1_radial_4_7848" cx="0" cy="0" r="1" gradientUnits="userSpaceOnUse" gradientTransform="translate(26.573 18.306) rotate(-135.967) scale(17.8039 17.8546)">
<stop offset="0.211663" stop-color="#3E304B"/>
<stop offset="1" stop-color="#27222C"/>
</radialGradient>
</defs>
</svg>

<svg width="32" height="32" fill="none" xmlns="http://www.w3.org/2000/svg"><g filter="url(#a)" fill-rule="evenodd" clip-rule="evenodd"><path d="M7.226 1.95a.95.95 0 0 1 .95.95v25.812a.95.95 0 1 1-1.9 0V2.9a.95.95 0 0 1 .95-.95Z" fill="#9D9DA2"/><path d="M7.226 1.95a.95.95 0 0 1 .95.95v25.812a.95.95 0 1 1-1.9 0V2.9a.95.95 0 0 1 .95-.95Z" fill="url(#b)"/></g><g filter="url(#c)"><path d="M9.451 5.119a7.857 7.857 0 0 0-2.593-.5c-.344-.002-.582.288-.582.631v12.198a.52.52 0 0 0 .515.512c2.315.049 2.846.909 5.493.909 2.833 0 6.008-1.907 8.748-1.907 1.857 0 3.875.685 5.016 1.198.241.108.525-.064.525-.329V5.494a.736.736 0 0 0-.425-.67c-5.097-2.338-7.6-.774-10.72.107-1.992.563-3.766.828-5.977.188Z" fill="url(#d)"/></g><defs><radialGradient id="b" cx="0" cy="0" r="1" gradientUnits="userSpaceOnUse" gradientTransform="matrix(-1.05217 .54509 -.62824 -1.21268 8.02 2.377)"><stop stop-color="#A9AAAD"/><stop offset="1" stop-color="#A9AAAD" stop-opacity="0"/></radialGradient><radialGradient id="d" cx="0" cy="0" r="1" gradientUnits="userSpaceOnUse" gradientTransform="rotate(-135.967 16.988 3.78) scale(17.8039 17.8546)"><stop offset=".212" stop-color="#3E304B"/><stop offset="1" stop-color="#27222C"/></radialGradient><filter id="a" x="6.276" y="1.45" width="2.65" height="28.212" filterUnits="userSpaceOnUse" color-interpolation-filters="sRGB"><feFlood flood-opacity="0" result="BackgroundImageFix"/><feBlend in="SourceGraphic" in2="BackgroundImageFix" result="shape"/><feColorMatrix in="SourceAlpha" values="0 0 0 0 0 0 0 0 0 0 0 0 0 0 0 0 0 0 127 0" result="hardAlpha"/><feOffset dx=".75" dy="-.5"/><feGaussianBlur stdDeviation=".375"/><feComposite in2="hardAlpha" operator="arithmetic" k2="-1" k3="1"/><feColorMatrix values="0 0 0 0 0.411765 0 0 0 0 0.415686 0 0 0 0 0.431373 0 0 0 1 0"/><feBlend in2="shape" result="effect1_innerShadow_4_7848"/></filter><filter id="c" x="6.026" y="3.347" width="20.547" height="15.521" filterUnits="userSpaceOnUse" color-interpolation-filters="sRGB"><feFlood flood-opacity="0" result="BackgroundImageFix"/><feBlend in="SourceGraphic" in2="BackgroundImageFix" result="shape"/><feColorMatrix in="SourceAlpha" values="0 0 0 0 0 0 0 0 0 0 0 0 0 0 0 0 0 0 127 0" result="hardAlpha"/><feOffset dx="-.25"/><feGaussianBlur stdDeviation=".25"/><feComposite in2="hardAlpha" operator="arithmetic" k2="-1" k3="1"/><feColorMatrix values="0 0 0 0 0.298039 0 0 0 0 0.262745 0 0 0 0 0.337255 0 0 0 1 0"/><feBlend in2="shape" result="effect1_innerShadow_4_7848"/><feColorMatrix in="SourceAlpha" values="0 0 0 0 0 0 0 0 0 0 0 0 0 0 0 0 0 0 127 0" result="hardAlpha"/><feOffset dy="-.25"/><feGaussianBlur stdDeviation=".25"/><feComposite in2="hardAlpha" operator="arithmetic" k2="-1" k3="1"/><feColorMatrix values="0 0 0 0 0.235294 0 0 0 0 0.145098 0 0 0 0 0.32549 0 0 0 1 0"/><feBlend in2="effect1_innerShadow_4_7848" result="effect2_innerShadow_4_7848"/></filter></defs></svg>
